src/resources/icons/contract.svg

<svg width="20" height="20" viewBox="0 0 20 20" fill="none" xmlns="http://www.w3.org/2000/svg">
<g clip-path="url(#clip0_7_279339)">
<g clip-path="url(#clip1_7_279339)">
<path d="M11.6667 2.5V5.83333C11.6667 6.05435 11.7545 6.26631 11.9108 6.42259C12.067 6.57887 12.279 6.66667 12.5 6.66667H15.8334" stroke="#121958" stroke-width="1.25" stroke-linecap="round" stroke-linejoin="round"/>
<path d="M14.1667 17.5H5.83335C5.39133 17.5 4.9674 17.3244 4.65484 17.0118C4.34228 16.6993 4.16669 16.2754 4.16669 15.8333V4.16667C4.16669 3.72464 4.34228 3.30072 4.65484 2.98816C4.9674 2.67559 5.39133 2.5 5.83335 2.5H11.6667L15.8334 6.66667V15.8333C15.8334 16.2754 15.6578 16.6993 15.3452 17.0118C15.0326 17.3244 14.6087 17.5 14.1667 17.5Z" stroke="#121958" stroke-width="1.25" stroke-linecap="round" stroke-linejoin="round"/>
<path d="M7.5 7.5H8.33333" stroke="#121958" stroke-width="1.25" stroke-linecap="round" stroke-linejoin="round"/>
<path d="M7.5 10.8333H12.5" stroke="#121958" stroke-width="1.25" stroke-linecap="round" stroke-linejoin="round"/>
<path d="M7.5 14.1667H12.5" stroke="#121958" stroke-width="1.25" stroke-linecap="round" stroke-linejoin="round"/>
</g>
</g>
<defs>
<clipPath id="clip0_7_279339">
<rect width="20" height="20" fill="white"/>
</clipPath>
<clipPath id="clip1_7_279339">
<rect width="20" height="20" fill="white"/>
</clipPath>
</defs>
</svg>

<svg xmlns="http://www.w3.org/2000/svg" width="20" height="20" fill="none"><g clip-path="url(#a)"><g clip-path="url(#b)"><path d="M11.667 2.5v3.333a.833.833 0 0 0 .833.834h3.333"/><path d="M14.167 17.5H5.833a1.667 1.667 0 0 1-1.666-1.667V4.167A1.667 1.667 0 0 1 5.833 2.5h5.834l4.166 4.167v9.166a1.666 1.666 0 0 1-1.666 1.667ZM7.5 7.5h.833M7.5 10.833h5m-5 3.334h5"/></g></g><defs><clipPath id="a"><path d="M0 0h20v20H0z"/></clipPath><clipPath id="b"><path d="M0 0h20v20H0z"/></clipPath></defs></svg>
